X:1
T:A fig for a kiss
M:9/8
L:1/8
C:anon.
R:Hop, slip jig
O:Ireland
B:Francis O'Neill: "The Dance Music of Ireland" (1907) no. 443
Z:Transcribed by Frank Nordberg - http://www.musicaviva.com
K:Em
G2B E2B BAG|F2A D2A AGF|G2B E2B BAG|(B/c/d).B AGF E3:|g2e g2e edB|
f2d ded fed|g2e g2e edB|dBG GBd e2f|g2e g2e edB|f2d ded fed|gfe fed edB|
BdB
AGF E3|]
